;FLAVOR:Marlin                 ; Прошивка принтера - Marlin
;TIME:921                      ; Общее время печати: 921 сек. (~15.35 минут)
;Filament used: 0.439384m      ; Израсходовано филамента: ~0.44 метра
;Layer height: 0.2             ; Толщина каждого слоя: 0.2 мм
;MINX:205.261                  ; Минимальная координата X модели
;MINY:195.261                  ; Минимальная координата Y модели
;MINZ:0.24                     ; Начальная высота печати (Z)
;MAXX:244.739                  ; Максимальная координата X модели
;MAXY:234.739                  ; Максимальная координата Y модели
;MAXZ:10.69                    ; Максимальная высота модели (Z)
;Generated with Cura_SteamEngine 5.4.0  ; Сгенерировано в Cura 5.4.0

M140 S80                       ; Установить температуру стола 80°C (без ожидания)
M105                           ; Запросить текущие температуры
M190 S80                       ; Ждать нагрева стола до 80°C
M104 S200                      ; Установить температуру сопла 200°C (без ожидания)
M105                           ; Запросить текущие температуры
M109 S200                      ; Ждать нагрева сопла до 200°C

M82 ;absolute extrusion mode   ; Включить абсолютный режим экструзии

G28 ;Home                      ; Выполнить автодоминг всех осей
G1 Z15.0 F6000                 ; Поднять сопло на 15 мм (скорость 6000 мм/мин)

; Подготовка экструдера
G92 E0                         ; Сбросить счетчик экструдера в 0
G1 F200 E3                     ; Протолкнуть 3 мм филамента (скорость 200 мм/мин)
G92 E0                         ; Сбросить счетчик экструдера (дубликат)
G1 F1500 E-6.5                 ; Сделать ретракт (откат) 6.5 мм филамента

;LAYER_COUNT:48                ; Общее количество слоев: 48
;LAYER:-6                      ; Специальный начальный слой (отрицательный индекс)
M107                           ; Выключить вентилятор обдува

G0 F7200 X210.711 Y201.374 Z0.24  ; Быстрое перемещение к начальной точке печати (7200 мм/мин)
;TYPE:SUPPORT-INTERFACE
G1 F1500 E0
G1 F1125 X211.479 Y200.613 E0.04315
G1 X212.174 Y200.008 E0.07993
G1 X212.823 Y199.476 E0.11342
G1 X213.672 Y198.83 E0.156
G1 X214.703 Y198.157 E0.20514
G1 X215.322 Y197.808 E0.2335
G1 X216.106 Y197.389 E0.26898
G1 X217.185 Y196.868 E0.31681
G1 X218.179 Y196.475 E0.35947
G1 X218.849 Y196.254 E0.38763
G1 X219.781 Y195.973 E0.42648
G1 X220.684 Y195.734 E0.46376
G1 X221.928 Y195.499 E0.51429
G1 X222.56 Y195.42 E0.53971
G1 X223.554 Y195.323 E0.57957
G1 X224.561 Y195.261 E0.61984
G1 X225.633 Y195.267 E0.66262
G1 X226.495 Y195.327 E0.69711
G1 X227.46 Y195.424 E0.73582
G1 X228.399 Y195.551 E0.77364
G1 X229.601 Y195.8 E0.82263
G1 X230.284 Y195.989 E0.85092
G1 X231.254 Y196.288 E0.89143
G1 X232.122 Y196.587 E0.92807
G1 X233.143 Y197.015 E0.97226
G1 X233.832 Y197.357 E1.00296
G1 X234.743 Y197.844 E1.04419
G1 X235.586 Y198.334 E1.0831
G1 X236.494 Y198.95 E1.1269
G1 X237.079 Y199.398 E1.15631
G1 X237.925 Y200.093 E1.2
G1 X238.626 Y200.711 E1.2373
G1 X239.387 Y201.479 E1.28046
G1 X239.992 Y202.174 E1.31723
G1 X240.512 Y202.809 E1.34999
G1 X241.17 Y203.672 E1.3933
G1 X241.843 Y204.703 E1.44244
G1 X242.192 Y205.322 E1.47081
G1 X242.642 Y206.168 E1.50905
G1 X243.132 Y207.185 E1.55411
G1 X243.525 Y208.177 E1.59669
G1 X243.746 Y208.85 E1.62497
G1 X244.027 Y209.779 E1.6637
G1 X244.266 Y210.684 E1.70106
G1 X244.501 Y211.923 E1.7514
G1 X244.583 Y212.587 E1.7781
G1 X244.677 Y213.544 E1.81648
G1 X244.739 Y214.561 E1.85714
G1 X244.733 Y215.633 E1.89993
G1 X244.677 Y216.454 E1.93277
G1 X244.589 Y217.355 E1.96891
G1 X244.449 Y218.399 E2.01095
G1 X244.2 Y219.601 E2.05994
G1 X244.014 Y220.27 E2.08766
G1 X243.716 Y221.243 E2.12827
G1 X243.413 Y222.122 E2.16538
G1 X242.985 Y223.143 E2.20956
G1 X242.608 Y223.899 E2.24328
G1 X242.158 Y224.741 E2.28139
G1 X241.666 Y225.586 E2.32041
G1 X241.05 Y226.494 E2.36421
G1 X240.602 Y227.079 E2.39361
G1 X239.906 Y227.926 E2.43737
G1 X239.289 Y228.626 E2.47461
G1 X238.521 Y229.387 E2.51776
G1 X237.826 Y229.992 E2.55454
G1 X237.177 Y230.524 E2.58803
G1 X236.328 Y231.17 E2.63061
G1 X235.297 Y231.843 E2.67975
G1 X234.678 Y232.192 E2.70812
G1 X233.894 Y232.611 E2.74359
G1 X232.815 Y233.132 E2.79142
G1 X231.821 Y233.525 E2.83408
G1 X231.151 Y233.746 E2.86224
G1 X230.219 Y234.027 E2.90109
G1 X229.316 Y234.266 E2.93837
G1 X228.072 Y234.501 E2.9889
G1 X227.44 Y234.58 E3.01432
G1 X226.446 Y234.677 E3.05418
G1 X225.439 Y234.739 E3.09445
G1 X224.367 Y234.733 E3.13724
G1 X223.505 Y234.673 E3.17172
G1 X222.54 Y234.576 E3.21043
G1 X221.601 Y234.449 E3.24825
G1 X220.399 Y234.2 E3.29724
G1 X219.716 Y234.011 E3.32553
G1 X218.746 Y233.712 E3.36604
G1 X217.878 Y233.413 E3.40268
G1 X216.857 Y232.985 E3.44687
G1 X216.168 Y232.643 E3.47757
G1 X215.31 Y232.185 E3.51639
G1 X214.414 Y231.666 E3.55771
G1 X213.506 Y231.05 E3.60151
G1 X212.915 Y230.597 E3.63123
G1 X212.173 Y229.99 E3.66949
G1 X211.374 Y229.289 E3.71191
G1 X210.495 Y228.393 E3.76201
G1 X210.009 Y227.827 E3.79179
G1 X209.399 Y227.078 E3.83034
G1 X208.737 Y226.195 E3.87439
G1 X208.158 Y225.297 E3.91703
G1 X207.808 Y224.678 E3.94541
G1 X207.389 Y223.893 E3.98093
G1 X206.935 Y222.966 E4.02213
G1 X206.474 Y221.821 E4.07139
G1 X206.254 Y221.151 E4.09954
G1 X205.971 Y220.214 E4.1386
G1 X205.734 Y219.316 E4.17567
G1 X205.499 Y218.072 E4.2262
G1 X205.417 Y217.413 E4.2527
G1 X205.323 Y216.456 E4.29108
G1 X205.261 Y215.439 E4.33175
G1 X205.267 Y214.367 E4.37454
G1 X205.323 Y213.546 E4.40738
G1 X205.426 Y212.521 E4.4485
G1 X205.551 Y211.601 E4.48555
G1 X205.8 Y210.399 E4.53455
G1 X205.986 Y209.73 E4.56226
G1 X206.288 Y208.746 E4.60334
G1 X206.587 Y207.878 E4.63998
G1 X207.015 Y206.857 E4.68417
G1 X207.402 Y206.082 E4.71874
G1 X207.844 Y205.257 E4.7561
G1 X208.334 Y204.414 E4.79502
G1 X208.95 Y203.506 E4.83881
G1 X209.398 Y202.921 E4.86822
G1 X210.094 Y202.074 E4.91197
G1 X210.711 Y201.374 E4.94921
G0 F7200 X210.718 Y201.667
G1 F1125 X238.333 Y229.282 E6.50792
G0 F7200 X238.905 Y228.722
G1 F1125 X211.277 Y201.094 E8.06737
G0 F7200 X211.86 Y200.546
G1 F1125 X239.451 Y228.138 E9.62475
G0 F7200 X239.973 Y227.528
G1 F1125 X212.47 Y200.024 E11.17717
G0 F7200 X213.096 Y199.52
G1 F1125 X240.482 Y226.905 E12.72292
G0 F7200 X240.967 Y226.26
G1 F1125 X213.738 Y199.03 E14.25987
G0 F7200 X214.42 Y198.581
G1 F1125 X241.424 Y225.585 E15.7841
G0 F7200 X241.847 Y224.876
G1 F1125 X215.12 Y198.15 E17.29266
G0 F7200 X215.852 Y197.75
G1 F1125 X242.248 Y224.146 E18.78256
G0 F7200 X242.633 Y223.399
G1 F1125 X216.603 Y197.37 E20.25178
G0 F7200 X217.373 Y197.008
G1 F1125 X242.985 Y222.621 E21.69746
G0 F7200 X243.308 Y221.812
G1 F1125 X218.184 Y196.688 E23.11557
G0 F7200 X219.034 Y196.407
G1 F1125 X243.591 Y220.964 E24.50167
G0 F7200 X243.854 Y220.096
G1 F1125 X219.905 Y196.147 E25.85345
G0 F7200 X220.804 Y195.914
G1 F1125 X244.079 Y219.189 E27.16719
G0 F7200 X244.267 Y218.245
G1 F1125 X221.756 Y195.734 E28.43781
G0 F7200 X222.754 Y195.601
G1 F1125 X244.398 Y217.245 E29.65949
G0 F7200 X244.493 Y216.209
G1 F1125 X223.792 Y195.508 E30.82795
G0 F7200 X224.878 Y195.462
G1 F1125 X244.535 Y215.12 E31.9375
G0 F7200 X244.501 Y213.954
G1 F1125 X226.043 Y195.496 E32.97935
G0 F7200 X227.286 Y195.608
G1 F1125 X244.393 Y212.715 E33.94494
G0 F7200 X244.195 Y211.385
G1 F1125 X228.609 Y195.799 E34.82469
G0 F7200 X230.081 Y196.14
G1 F1125 X243.856 Y209.915 E35.60221
G0 F7200 X243.345 Y208.272
G1 F1125 X231.74 Y196.667 E36.25724
G0 F7200 X233.739 Y197.535
G1 F1125 X242.464 Y206.26 E36.74972
G0 F7200 X240.63 Y203.295
G1 F1125 X236.68 Y199.345 E36.97267
G0 F7200 X210.19 Y202.27
G1 F1125 X237.729 Y229.809 E38.52709
G0 F7200 X237.108 Y230.32
G1 F1125 X209.679 Y202.891 E40.07531
G0 F7200 X209.184 Y203.527
G1 F1125 X236.467 Y230.81 E41.61528
G0 F7200 X235.8 Y231.274
G1 F1125 X208.721 Y204.196 E43.1437
G0 F7200 X208.286 Y204.891
G1 F1125 X235.111 Y231.717 E44.65785
G0 F7200 X234.384 Y232.121
G1 F1125 X207.878 Y205.615 E46.15396
G0 F7200 X207.487 Y206.356
G1 F1125 X233.641 Y232.51 E47.63021
G0 F7200 X232.878 Y232.878
G1 F1125 X207.12 Y207.12 E49.0841
G0 F7200 X206.786 Y207.917
G1 F1125 X232.076 Y233.208 E50.51161
G0 F7200 X231.241 Y233.504
G1 F1125 X206.494 Y208.757 E51.90843
G0 F7200 X206.226 Y209.621
G1 F1125 X230.375 Y233.769 E53.27148
G0 F7200 X229.487 Y234.012
G1 F1125 X205.981 Y210.507 E54.59823
G0 F7200 X205.787 Y211.444
G1 F1125 X228.548 Y234.205 E55.88296
G0 F7200 X227.572 Y234.36
G1 F1125 X205.64 Y212.428 E57.1209
G0 F7200 X205.532 Y213.452
G1 F1125 X226.545 Y234.465 E58.30696
G0 F7200 X225.483 Y234.534
G1 F1125 X205.465 Y214.516 E59.43686
G0 F7200 X205.474 Y215.656
G1 F1125 X224.347 Y234.529 E60.50214
G0 F7200 X223.118 Y234.432
G1 F1125 X205.565 Y216.878 E61.49293
G0 F7200 X205.72 Y218.165
G1 F1125 X221.832 Y234.277 E62.40236
G0 F7200 X220.42 Y233.997
G1 F1125 X206.012 Y219.589 E63.21561
G0 F7200 X206.475 Y221.183
G1 F1125 X218.815 Y233.523 E63.91214
G0 F7200 X216.979 Y232.818
G1 F1125 X207.188 Y223.027 E64.46478
G0 F7200 X208.52 Y225.491
G1 F1125 X214.529 Y231.5 E64.80396
G0 F600 X214.529 Y231.5 Z0.54
G0 F7200 X237.73 Y229.808
;TIME_ELAPSED:93.474878
;LAYER:-5
;TYPE:SUPPORT
G1 F1125 X239.809 Y227.729 E64.95064
G0 F7200 X238.256 Y229.357
G1 F1125 X239.145 Y228.488 E65.01266
G1 X239.757 Y227.792 E65.0589
G1 X240.371 Y227.046 E65.10711
G1 X240.809 Y226.484 E65.14265
G1 X241.423 Y225.595 E65.19656
G1 X241.89 Y224.799 E65.2426
G1 X234.791 Y231.899 E65.74351
G1 X233.806 Y232.43 E65.79933
G1 X233.04 Y232.801 E65.8418
G1 X242.815 Y223.026 E66.53148
G1 X243.159 Y222.221 E66.57515
G1 X243.369 Y221.623 E66.60677
G1 X231.607 Y233.386 E67.43668
G1 X231.09 Y233.555 E67.46382
G1 X230.372 Y233.772 E67.50124
G1 X243.772 Y220.371 E68.44671
G1 X244 Y219.565 E68.4885
G1 X244.072 Y219.224 E68.50589
G1 X229.214 Y234.082 E69.5542
G1 X228.166 Y234.281 E69.60742
G1 X244.278 Y218.169 E70.74421
G1 X244.402 Y217.197 E70.7931
G1 X227.196 Y234.403 E72.00707
G1 X226.262 Y234.487 E72.05386
G1 X244.488 Y216.262 E73.33977
G1 X244.549 Y215.352 E73.38527
G1 X225.362 Y234.539 E74.73902
G1 X224.52 Y234.533 E74.78102
G1 X244.532 Y214.521 E76.19298
G1 X244.484 Y213.72 E76.23301
G1 X223.716 Y234.488 E77.69831
G1 X222.94 Y234.415 E77.73719
G1 X244.415 Y212.94 E79.25237
G1 X244.33 Y212.177 E79.29067
G1 X222.181 Y234.326 E80.8534
G1 X221.434 Y234.225 E80.89101
G1 X244.207 Y211.451 E82.4978
G1 X244.072 Y210.738 E82.53401
G1 X220.746 Y234.065 E84.17982
G1 X220.064 Y233.898 E84.21485
G1 X243.894 Y210.067 E85.89622
G1 X243.706 Y209.407 E85.93046
G1 X219.407 Y233.706 E87.64488
G1 X218.76 Y233.505 E87.67868
G1 X243.505 Y208.759 E89.42461
G1 X243.289 Y208.127 E89.45793
G1 X218.132 Y233.284 E91.2329
G1 X217.52 Y233.048 E91.26562
G1 X243.048 Y207.519 E93.06679
G1 X242.787 Y206.931 E93.09889
G1 X216.928 Y232.791 E94.92342
G1 X216.357 Y232.513 E94.9551
G1 X242.511 Y206.359 E96.80041
G1 X242.22 Y205.802 E96.83176
G1 X215.801 Y232.221 E98.69576
G1 X215.252 Y231.921 E98.72697
G1 X241.921 Y205.252 E100.60862
G1 X241.616 Y204.709 E100.63969
G1 X214.718 Y231.607 E102.53749
G1 X214.196 Y231.28 E102.56822
G1 X241.278 Y204.199 E104.47896
G1 X240.932 Y203.696 E104.50942
G1 X213.694 Y230.934 E106.43121
G1 X213.208 Y230.571 E106.46147
G1 X240.568 Y203.211 E108.39187
G1 X240.192 Y202.738 E108.42202
G1 X212.737 Y230.194 E110.35915
G1 X212.272 Y229.811 E110.3892
G1 X239.81 Y202.272 E112.33219
G1 X239.418 Y201.816 E112.36219
G1 X211.818 Y229.416 E114.30952
G1 X211.377 Y229.008 E114.3395
G1 X239.003 Y201.382 E116.28866
G1 X238.584 Y200.953 E116.31858
G1 X210.956 Y228.581 E118.26788
G1 X210.548 Y228.14 E118.29786
G1 X238.14 Y200.548 E120.24462
G1 X237.688 Y200.152 E120.2746
G1 X210.154 Y227.686 E122.21727
G1 X209.773 Y227.218 E122.24738
G1 X237.221 Y199.77 E124.18399
G1 X236.747 Y199.395 E124.21414
G1 X209.399 Y226.744 E126.14372
G1 X209.034 Y226.26 E126.17397
G1 X236.259 Y199.035 E128.09484
G1 X235.757 Y198.688 E128.12528
G1 X208.69 Y225.755 E130.03501
G1 X208.357 Y225.24 E130.0656
G1 X235.233 Y198.363 E131.96189
G1 X234.7 Y198.049 E131.99275
G1 X208.049 Y224.699 E133.87309
G1 X207.752 Y224.148 E133.90431
G1 X234.149 Y197.751 E135.76677
G1 X233.591 Y197.46 E135.79816
G1 X207.463 Y223.588 E137.64163
G1 X207.187 Y223.015 E137.67336
G1 X233.018 Y197.185 E139.49585
G1 X232.426 Y196.928 E139.52804
G1 X206.929 Y222.426 E141.32703
G1 X206.688 Y221.817 E141.35971
G1 X231.811 Y196.695 E143.13223
G1 X231.184 Y196.473 E143.16542
G1 X206.475 Y221.183 E144.90881
G1 X206.276 Y220.533 E144.94272
G1 X230.534 Y196.275 E146.65425
G1 X229.876 Y196.084 E146.68844
G1 X206.087 Y219.873 E148.36688
G1 X205.915 Y219.197 E148.40168
G1 X229.191 Y195.92 E150.04396
G1 X228.49 Y195.773 E150.0797
G1 X205.78 Y218.483 E151.68201
G1 X205.66 Y217.754 E151.71887
G1 X227.752 Y195.663 E153.27754
G1 X226.989 Y195.577 E153.31585
G1 X205.577 Y216.989 E154.82658
G1 X205.499 Y216.218 E154.86524
G1 X226.211 Y195.506 E156.32659
G1 X225.415 Y195.454 E156.36638
G1 X205.46 Y215.409 E157.77432
G1 X205.466 Y214.554 E157.81698
G1 X224.56 Y195.46 E159.16416
G1 X223.656 Y195.516 E159.20935
G1 X205.516 Y213.656 E160.48922
G1 X205.606 Y212.717 E160.53628
G1 X222.719 Y195.604 E161.7437
G1 X221.757 Y195.718 E161.79203
G1 X205.739 Y211.736 E162.92218
G1 X205.777 Y211.466 E162.93579
G1 X205.946 Y210.68 E162.9759
G1 X220.688 Y195.938 E164.01603
G1 X219.522 Y196.256 E164.07632
G1 X206.26 Y209.518 E165.01203
G1 X206.471 Y208.826 E165.04812
G1 X206.671 Y208.259 E165.07812
G1 X218.278 Y196.651 E165.89709
G1 X217.256 Y197.054 E165.9519
G1 X216.813 Y197.268 E165.97644
G1 X207.252 Y206.829 E166.65102
G1 X207.579 Y206.171 E166.68768
G1 X208.173 Y205.059 E166.75058
G1 X215.034 Y198.198 E167.23466
G1 X214.803 Y198.329 E167.24791
G1 X213.901 Y198.911 E167.30146
G1 X213.041 Y199.558 E167.35515
G1 X212.3 Y200.163 E167.40288
G1 X211.745 Y200.639 E167.43936
G1 X210.852 Y201.511 E167.50163
G1 X210.709 Y201.675 E167.51248
G1 X211.745 Y200.639 E167.58558
G0 F600 X211.745 Y200.639 Z0.74
G0 F7200 X239.173 Y201.555
;TIME_ELAPSED:203.763334
;LAYER:-4
;TYPE:SUPPORT-INTERFACE
G1 F1500 X238.357 Y200.739 E167.60477
G1 X237.677 Y200.143 E167.61981
G1 X237.051 Y199.632 E167.63325
G1 X236.671 Y199.336 E167.64126
G1 X240.634 Y203.298 E167.73445
G1 X241.088 Y203.902 E167.74701
G1 X241.33 Y204.278 E167.75445
G1 X235.679 Y198.626 E167.88736
G1 X234.99 Y198.221 E167.90065
G1 X241.794 Y205.024 E168.06066
G1 X242.141 Y205.654 E168.07262
G1 X234.342 Y197.855 E168.25604
G1 X233.739 Y197.535 E168.2674
G1 X242.463 Y206.259 E168.47257
G1 X242.728 Y206.807 E168.48269
G1 X233.174 Y197.253 E168.70739
G1 X232.674 Y197.036 E168.71645
G1 X242.978 Y207.34 E168.95879
G1 X243.163 Y207.808 E168.96716
G1 X232.182 Y196.826 E169.22543
G1 X231.745 Y196.672 E169.23313
G1 X243.345 Y208.273 E169.50596
G1 X243.485 Y208.696 E169.51337
G1 X231.308 Y196.518 E169.79976
G1 X230.891 Y196.384 E169.80705
G1 X243.617 Y209.11 E170.10634
G1 X243.74 Y209.516 E170.1134
G1 X230.484 Y196.261 E170.42515
G1 X230.084 Y196.142 E170.43209
G1 X243.853 Y209.912 E170.75592
G1 X243.956 Y210.298 E170.76257
G1 X229.693 Y196.035 E171.09801
G1 X229.325 Y195.949 E171.1043
G1 X244.06 Y210.684 E171.45084
G1 X244.13 Y211.038 E171.45684
G1 X228.966 Y195.874 E171.81348
G1 X228.609 Y195.799 E171.81954
G1 X244.196 Y211.386 E172.18613
G1 X244.262 Y211.735 E172.19203
G1 X228.259 Y195.732 E172.5684
G1 X227.933 Y195.688 E172.57387
G1 X244.318 Y212.074 E172.95923
G1 X244.358 Y212.397 E172.96464
G1 X227.606 Y195.645 E173.35862
G1 X227.285 Y195.606 E173.364
G1 X244.395 Y212.716 E173.7664
G1 X244.425 Y213.03 E173.77165
G1 X226.971 Y195.575 E174.18215
G1 X226.657 Y195.544 E174.1874
G1 X244.456 Y213.343 E174.606
G1 X244.482 Y213.652 E174.61116
G1 X226.345 Y195.515 E175.03772
